X:1
T:The Kingdom Shall Stand
T:The Kingdom Shall Stand
T:James Henry Fillmore
T:Henry Robert Trickett, 1884
T:Public Domain Courtesy of the Cyber Hymnal™
T:Public Domain Courtesy of the Cyber Hymnal™
C:James Henry Fillmore
Z:Public Domain
Z:Courtesy of the Cyber Hymnal™
%%score ( 1 2 ) ( 3 4 )
L:1/8
Q:1/4=97
M:4/4
K:A
V:1 treble 
V:2 treble 
V:3 bass 
V:4 bass 
V:1
 (3(E{g}FG) x | A2 [CA]>[CA] [CA]2 (3([A,C][B,D])[CE] | [DF]2 [DF]>[DF] [DF]2 (3(dc)[FB] | %3
w: 1.~The * *|king- doms of earth pass * a-|way one by one, But * the|
w: 2.~The * *|tem- pest may rage and * the|hur- ri- cane roar, Yea, * the|
w: 3.~The * *|king- dom of God is * now|o- pen to all, Even * the|
 [EA]2 [EA]>[EA] [DG]2 [DF]>[DG] | [CA]6 (3(EF)[DG] x | [CA]2 [CA]>[CA] [CA]2 (3([A,C][B,D])[CE] | %6
w: king- dom of Hea- ven re-|mains; It * is|built on a rock, and * the|
w: wind and the tor- rents des-|cend, And * the|strong gates of hell may * as-|
w: vil- est may now en- ter|in; There’s * a|wel- come for all who * will|
 [DF]2 [DF]>[DF] [DF]2 (3(dc)[FB] | [EA]2 [EA]>[EA] [DG]2 [DF]>[DG] | [CA]6 || %9
w: Lord is its king, And * for-|ev- er and ev- er He|reigns.|
w: sail it in vain, For * the|king- dom shall stand till the|end.|
w: turn to the Lord, Full * sal-|va- tion and par- don for|sin.|
"^Refrain" [EG]>[FA] | [GB]6 [CA]>[EB] | [Ac]6 ([GB]>[Ac]) | %12
w: |||
w: It shall|stand, it shall|stand, For- *|
w: |||
 !>![Bd] !>!E2 [Bd] !>![Ac] !>!E2 [Ac] | !>![GB] !>!E3 z2 | (3(EF)[DG] | A6 (3(Bc)[Ad] x3/8 | %16
w: ||||
w: ev- er and ev- er and|ev- er;|It * shall|stand; it * shall|
w: ||||
 d6 (3(B{c'}cd) | !>![Ec] !>!E2 [Ac] !>![GB] !>!E2 [DB] | !fermata!A6 |] %19
w: |||
w: stand; It * *|shall stand; it shall stand; For-|ev-|
w: |||
V:2
 EFG | A2 x6 | x6 F2 | x8 | x6 E2 x | x8 | x6 F2 | x8 | x6 || x2 | x8 | x8 | x E2 E2 x3 | x E3 x2 | %14
 E2 | C2 E>E E2 B2 x3/8 | F2 F>F F2 F2 | x E2 E2 x3 | CC D2 C2 |] %19
V:3
 E,F,G, | A,2 [A,,E,]>[A,,E,] [A,,E,]2 (3:2:2[A,,E,]2 [A,,A,] | %2
w: It shall stand,|it * * * * *|
 [D,A,]2 [D,A,]>[D,A,] [D,A,]2 (3:2:2[D,A,]2 [D,B,] | [E,C]2 [E,C]>[E,C] [E,B,]2 [E,B,]>[E,B,] | %4
w: ||
 [A,,A,]6 E,2 E, | [A,,E,]2 [A,,E,]>[A,,E,] [A,,E,]2 (3:2:2([A,,E,]2 [A,,A,]) | %6
w: * shall stand,||
 [D,A,]2 [D,A,]>[D,A,] [D,A,]2 (3:2:2[D,A,]2 [D,B,] | [E,C]2 [E,C]>[E,C] [E,B,]2 [E,B,]>[E,B,] | %8
w: ||
 [A,,A,]6 || z2 | z2 [E,E]>[E,E] [E,E]2 z2 | z2 [A,E]>[A,E] [A,E]2 (B,>A,) | %12
w: ||It shall stand;||
 !>![E,G,] E,2 [E,G,] !>![E,A,] E,2 E, | E, E,3 x2 | (3:2:2[C,E,]2 [B,,E,] | %15
w: |||
 [A,,E,]2 [A,C]>[A,C] [A,C]2 (3:2:1[A,C]2 A, x/24 | [D,A,]2 [D,A,]>[D,A,] [D,A,]2 [D,A,]2 | %17
w: ||
 !>![E,A,] !>!E,2 E, E, !>!E,2 [E,G,] | [A,,E,A,][A,,E,] !fermata![D,F,]2 !fermata![A,,E,]2 |] %19
w: ||
V:4
 (3(E,{E,,}F,G,) x | A,2 x6 | x8 | x8 | x6 (3:2:2E,2 E, x | x8 | x8 | x8 | x6 || x2 | x8 | x6 E,2 | %12
 x !>!E,2 !>!E,2 !>!E, x2 | !>!E,E, E,>E, (E,D,) | x2 | x22/3 (3:2:1A, x3/8 | x8 | %17
 x E,2 E, !>!E, E,2 x | x6 |] %19

